X:1
T:Title
%%score { ( 1 3 ) | ( 2 4 ) }
L:1/8
Q:1/4=150
M:6/4
K:F
V:1 treble nm="Grand Piano"
V:3 treble 
V:2 bass 
V:4 bass 
V:1
 A2 _A2 =A2 d2 c2 F2 | A6 A6 | E6 [Bd]4 [Be]2 | [Ac]12 | A2 _A2 =A2 d2 c2 F2 | A6 A6 | G6 d4 e2 | %7
w: J.~Lincoln~Hall * * * * *|||||||
 [Ec]12 | B2 [DB]2 [EB]2 [EB]2 B2 [EB]2 | [GB]6 A6 | c2 [Ec]2 [^Fc]2 [Fc]2 [Ec]2 [Fc]2 | [Ac]6 B6 | %12
w: |||||
 d2 d2 d2 [Be]2 [Bd]2 [Be]2 | [Af]6 [Fc]6 | [DF]6 [EG]6 | F2 A2 B2 c2 d2 e2 | z2 c2 c2 z2 c2 c2 | %17
w: |||||
 z2 A2 A2 z2 A2 A2 | A2 A2 A2 G4 F2 | [CEB]12 | z2 B2 B2 z2 B2 B2 | z2 A2 A2 z2 G2 G2 | %22
w: |||||
 [CFA]2 [CFA]2 [CFA]2 [DF=B]4 [DFB]2 | [Cc]6 [Cc]6 | z2 c2 c2 z2 c2 c2 | z2 A2 A2 z2 A2 A2 | %26
w: ||||
 [CFA]2 [CFA]2 [CFA]2 [CFG]4 [CF]2 | [B,FB]12 | z2 ^c2 c2 z2 _A2 A2 | z2 c2 c2 z2 A2 A2 | %30
w: ||||
 c2 d2 e2 e4 [Af]2[Q:1/4=148][Q:1/4=145][Q:1/4=143][Q:1/4=141][Q:1/4=138][Q:1/4=136][Q:1/4=134][Q:1/4=131][Q:1/4=129][Q:1/4=127][Q:1/4=124][Q:1/4=122][Q:1/4=120][Q:1/4=117][Q:1/4=115] | %31
w: |
 [Af]12 |] %32
w: |
V:2
 [F,CF]2 [F,=B,F]2 [F,CF]2 [F,A,F]2 [F,A,F]2 [F,A,]2 | [F,CF]6 [F,CF]6 | [C,B,]6 [C,C]4 [C,C]2 | %3
 [F,C]12 | [F,CF]2 [F,=B,F]2 [F,CF]2 [F,A,F]2 [F,A,F]2 [F,A,]2 | [F,CF]6 [F,CF]6 | %6
 [G,CE]6 [G,=B,F]4 [G,B,G]2 | [C,C]12 | [C,C]2 [C,C]2 [C,C]2 [C,C]2 [C,C]2 [C,C]2 | %9
 [E,C]6 [F,CF]6 | [D,D]2 [D,D]2 [D,D]2 [D,D]2 [D,D]2 [D,D]2 | [^F,D]6[K:treble] [DG]6 | %12
 [B,DB]2 [B,DB]2 [B,DB]2 [G,C]2[K:bass] [G,C]2 [G,C]2 | [F,C]6 [F,A,]6 | [G,=B,]6 [C,_B,]6 | %15
 [F,A,]12 | z2[K:treble] A2 A2[K:bass] z2[K:treble] A2 A2 | %17
 z2[K:treble] F2 F2[K:bass] z2[K:treble] F2 F2 | [F,CF]2 [F,CF]2 [F,DF]2[K:bass] [B,CE]4 [A,C]2 | %19
 G,2 C,2 D,2 E,2 F,2 G,2 | z2[K:treble] G2 G2[K:bass] z2[K:treble] G2 G2 | %21
 z2[K:treble] F2 F2[K:bass] z2 E2 E2 | F,2 F,2 F,2 D,4 G,2 | %23
 z2[K:treble] e2 d2[K:bass] z2[K:treble] B2 G2 | z2[K:treble] A2 A2[K:bass] z2[K:treble] A2 A2 | %25
 z2[K:treble] F2 F2[K:bass] z2[K:treble] F2 F2 | _E,2 E,2 E,2 E,4 E,2 | D,12 | %28
 z2[K:treble] _A2 A2[K:bass] [^C,_A,]6 | z2[K:treble] A2 A2[K:bass] [C,A,]6 | %30
 [CEB]2 [CEB]2 [CEB]2 [CEB]4[K:bass] [F,C]2 | [F,C]12 |] %32
V:3
 x12 | x12 | x12 | x12 | x12 | x12 | x12 | x12 | x12 | x12 | x12 | x12 | x12 | x12 | x12 | x12 | %16
 [Ff]6 [Ee]6 | [Dd]6 [Cc]6 | x12 | x12 | [Ee]6 [Dd]6 | [Cc]6 [B,B]6 | x12 | E12 | [Ff]6 [Ee]6 | %25
 [Dd]6 [Cc]6 | x12 | x12 | [Ff]6 [F=B]6 | [Ff]6 [Fc]6 | x12 | x12 |] %32
V:4
 x12 | x12 | x12 | x12 | x12 | x12 | x12 | x12 | x12 | x12 | x12 | x6[K:treble] x6 | %12
 x8[K:bass] x4 | x12 | x12 | x12 | [F,,F,]6[K:treble][K:bass] [E,,E,]6[K:treble] | %17
 [D,,D,]6[K:treble][K:bass] [C,,C,]6[K:treble] | x6[K:bass] x6 | x12 | %20
 [C,C]6[K:treble][K:bass] [B,,B,]6[K:treble] | [A,,A,]6[K:treble][K:bass] [G,,G,]6 | x12 | %23
 C,6[K:treble][K:bass] C,6[K:treble] | [F,,F,]6[K:treble][K:bass] [E,,E,]6[K:treble] | %25
 [D,,D,]6[K:treble][K:bass] [C,,C,]6[K:treble] | x12 | x12 | [^C,_A,]6[K:treble][K:bass] z6 | %29
 [C,A,]6[K:treble][K:bass] z6 | x10[K:bass] x2 | x12 |] %32

